learning-site/svg (47).svg

<svg xmlns="http://www.w3.org/2000/svg" xmlns:xlink="http://www.w3.org/1999/xlink" viewBox="0 0 100 100" version="1.1"><!-- Generator: Sketch 51.3 (57544) - http://www.bohemiancoding.com/sketch --><title>create-a-linux-virtual-machine</title><desc>Created with Sketch.</desc><defs><filter x="-1.5%" y="-1.7%" width="103.0%" height="106.7%" filterUnits="objectBoundingBox" id="filter-1"><feOffset dx="0" dy="2" in="SourceAlpha" result="shadowOffsetOuter1"></feOffset><feColorMatrix values="0 0 0 0 0   0 0 0 0 0   0 0 0 0 0  0 0 0 0.0972316576 0" type="matrix" in="shadowOffsetOuter1" result="shadowMatrixOuter1"></feColorMatrix><feMerge><feMergeNode in="shadowMatrixOuter1"></feMergeNode><feMergeNode in="SourceGraphic"></feMergeNode></feMerge></filter><linearGradient x1="50%" y1="100%" x2="50%" y2="3.061617e-15%" id="linearGradient-2"><stop stop-color="#FFFFFF" stop-opacity="0.5" offset="0%"></stop><stop stop-color="#000000" stop-opacity="0.5" offset="100%"></stop></linearGradient><path d="M13.849736,44.4649419 C13.0479092,44.4649419 12.3918691,43.8089018 12.3918691,43.007075 L12.3918691,15.307603 C12.3918691,14.5057761 13.0479092,13.849736 13.849736,13.849736 L53.2121436,13.849736 C54.0139705,13.849736 54.6700106,14.5057761 54.6700106,15.307603 L54.6700106,43.007075 C54.6700106,43.8089018 54.0139705,44.4649419 53.2121436,44.4649419 L13.849736,44.4649419" id="path-3"></path></defs><g id="Badges-FINAL" stroke="none" stroke-width="1" fill="none" fill-rule="evenodd"><g id="Deploy-a-website-to-Azure-with-Virtual-Machine-Hosting" transform="translate(-577.000000, -348.000000)"><g id="create-a-linux-virtual-machine" transform="translate(577.000000, 348.000000)"><rect id="BG" fill="#55A2FF" x="2" y="2" width="96" height="96" rx="48"></rect><ellipse id="Shadow" fill="#000000" opacity="0.100000001" cx="50" cy="85.6482154" rx="18.3124528" ry="4.02225632"></ellipse><g id="Burst" transform="translate(10.102398, 8.758813)" fill="#FFFFFF" fill-opacity="0.649399909" stroke="#FFFFFF"><path d="M53.764046,13.2204856 L58.4101678,5.16939028 L59.2638396,5.66159602 L54.6120109,13.7225805 C54.3324296,13.5506164 54.0497401,13.3832168 53.764046,13.2204856 Z M68.577986,38.9051716 L78.3906593,38.9051716 L78.3906593,39.8895831 L68.5546414,39.8895831 C68.5678052,39.5627961 68.5756152,39.2346305 68.577986,38.9051716 Z M10.6736884,32.4010069 L0.991306832,29.807733 L1.24509796,28.8579334 L10.9001034,31.4438751 C10.8194296,31.7608857 10.7439262,32.0799614 10.6736884,32.4010069 Z M48.6584794,5.93920006 L47.7086798,5.68540893 L48.8699901,1.35941269 L49.8197896,1.61320382 L48.6584794,5.93920006 Z M72.5993666,31.0682719 L72.3455754,30.1184723 L77.0561812,28.8572443 L77.3099724,29.8070439 L72.5993666,31.0682719 Z M9.53599846,22.9892069 L4.80619663,20.2590401 L5.29840237,19.4053683 L10.0282042,22.1355351 L9.53599846,22.9892069 Z M30.6929699,9.85420451 L28.4857225,1.61359758 L29.4355221,1.35980646 L31.6427695,9.60041338 L30.6929699,9.85420451 Z" id="Combined-Shape-Copy" transform="translate(39.690983, 20.624498) rotate(-2.000000) translate(-39.690983, -20.624498) "></path><path d="M6.25584511,38.6236149 C5.40593623,38.6236149 4.64021941,39.1358519 4.31380437,39.9237717 C3.98944421,40.7116705 4.16805015,41.6167983 4.7695504,42.2195849 C5.37103489,42.8223188 6.2763886,43.001322 7.06060455,42.6762776 C7.84687012,42.3491898 8.35806624,41.5818771 8.35806624,40.7302028 C8.35806624,39.5658652 7.41781644,38.6236623 6.25589241,38.6236623 L6.25584511,38.6236149 Z M6.25584511,41.7834257 C5.83089593,41.7834257 5.4490308,41.5262803 5.28479846,41.1333473 C5.12262101,40.7383709 5.21294616,40.2857807 5.51266885,39.9854407 C5.81444642,39.6830363 6.26608795,39.5925235 6.65819593,39.757097 C7.05235352,39.9196113 7.30692677,40.3043235 7.30692677,40.7301607 C7.30692677,41.3103019 6.83681238,41.781377 6.25583985,41.7834309 L6.25584511,41.7834257 Z M40.0480505,5.63859125 C38.9846659,5.63859125 38.025917,6.28045413 37.6194617,7.26373456 C37.2129853,8.24912153 37.4367512,9.38054442 38.1880997,10.1334746 C38.9394692,10.8864049 40.0705964,11.1127 41.0518911,10.7053477 C42.0352355,10.2980271 42.6757153,9.33730767 42.6757153,8.27171418 C42.6736604,6.81935985 41.4973417,5.64059247 40.0459484,5.63853859 L40.0480505,5.63859125 Z M40.0480505,9.85167219 C39.4096204,9.85167219 38.8347809,9.46698104 38.5905083,8.87655461 C38.3462147,8.28614398 38.4817051,7.60725865 38.9312917,7.15472109 C39.3829333,6.70420055 40.0603693,6.56841822 40.6495561,6.81322982 C41.2387428,7.05803089 41.6247019,7.63404331 41.6247019,8.27174578 C41.6226471,9.14395886 40.916427,9.85165113 40.0460219,9.85165113 L40.0480505,9.85167219 Z M68.8787718,51.0590261 C67.6039085,51.0590261 66.4542822,51.8283873 65.9656844,53.0092086 C65.4770814,54.1900299 65.746023,55.5498017 66.6493113,56.4529283 C67.5505133,57.3560022 68.9075138,57.6275879 70.0858926,57.1379752 C71.2642661,56.6483678 72.0320325,55.4963483 72.0320325,54.2188368 C72.0299777,52.474358 70.6196345,51.06108 68.8787718,51.0590261 Z M68.8787718,56.3253773 C68.0288629,56.3253773 67.2610965,55.8110865 66.9367311,55.0252205 C66.6103213,54.2373217 66.7909768,53.3321939 67.3924771,52.7294074 C67.9939616,52.1266735 68.8972657,51.9456163 69.6835312,52.2727146 C70.4677472,52.5977486 70.9809929,53.3671151 70.9809929,54.2187894 C70.978938,55.3810731 70.0386935,56.323276 68.8788191,56.3253299 L68.8787718,56.3253773 Z" id="Fill-1"></path></g><g id="Jumping" filter="url(#filter-1)" transform="translate(49.691046, 47.347461) rotate(8.000000) translate(-49.691046, -47.347461) translate(16.691046, 17.347461)"><path d="M35.038858,58.5116658 C34.8737819,58.6316006 34.6953177,58.7197696 34.5107586,58.7773279 C34.4372163,58.8278148 34.359041,58.8735176 34.2764524,58.9137987 C33.3727569,59.3545605 32.2828588,58.9792785 31.842097,58.0755829 L25.769195,45.6242885 C25.3284332,44.7205929 25.7037152,43.6306949 26.6074108,43.1899331 C27.5111063,42.7491713 28.6010044,43.1244533 29.0417662,44.0281489 L33.7879715,53.759312 C33.9816561,54.1564241 34.4605915,54.3213348 34.8577037,54.1276503 C34.899562,54.1072346 34.9395577,54.0832028 34.977235,54.0558286 L44.1062742,47.4231934 C44.9197031,46.8322027 46.0582102,47.0125245 46.6492009,47.8259534 C46.7697392,47.945474 46.8726334,48.0767506 46.9579424,48.2245101 L47.8716744,49.8071405 C48.3744012,50.6778887 48.0760608,51.7913101 47.2053126,52.2940369 C46.3345643,52.7967636 45.2211429,52.4984232 44.7184161,51.627675 L44.657967,51.522974 L35.038858,58.5116658 Z" id="Combined-Shape" fill="#30404D" fill-rule="nonzero"></path><path d="M45.3393342,57.9720983 C45.2947733,57.9957918 45.2496718,58.0174468 45.2041365,58.0370962 C44.2599412,58.4982266 43.1700432,58.1229446 42.7292814,57.219249 L36.6563793,44.7679546 C36.2156175,43.864259 36.5908995,42.774361 37.4945951,42.3335992 C38.3982907,41.8928374 39.4881887,42.2681194 39.9289505,43.171815 L44.8149024,53.1895009 C45.008587,53.5866131 45.4875224,53.7515238 45.8846346,53.5578393 C45.8930011,53.5537586 45.9012958,53.5495322 45.9095149,53.5451621 L55.861724,48.2534786 C56.7494868,47.7814468 57.851818,48.1184633 58.3238498,49.006226 C58.46435,49.1418809 58.5817358,49.2865006 58.6771319,49.4517314 L59.5908639,51.0343618 C60.0935907,51.90511 59.7952503,53.0185315 58.9245021,53.5212582 C58.0537538,54.0239849 56.9403324,53.7256445 56.4376056,52.8548963 L56.0913439,52.2551533 L45.3393342,57.9720983 Z" id="Combined-Shape" fill="#30404D" fill-rule="nonzero"></path><path d="M55.905373,29.9532119 C54.8849331,30.8058636 54.0734813,31.0852688 53.4710176,30.7914276 C52.567322,30.3506659 52.19204,29.2607678 52.6328018,28.3570722 L56.0191082,21.4273338 C57.8661117,17.647625 59.2082138,13.6415066 60.0109193,9.51194436 L61.4067615,2.33095919 C61.598611,1.34397875 62.5542416,0.69939781 63.541222,0.891247374 C64.5282025,1.08309694 65.1727834,2.03872747 64.9809338,3.02570792 L63.2809154,11.3464675 C62.4753705,15.2892162 61.1772055,19.1150151 59.4169738,22.7338207 Z" id="Combined-Shape" fill="#30404D" fill-rule="nonzero" transform="translate(58.731432, 15.880926) rotate(3.000000) translate(-58.731432, -15.880926) "></path><path d="M9.94866681,19.0279464 L15.5042946,36.1264106 C15.8149968,37.0826537 15.2916826,38.1097158 14.3354395,38.420418 C13.3791964,38.7311202 12.3521344,38.2078059 12.0414322,37.2515628 L6.42106894,19.9538635 C5.69776245,17.727755 5.07250282,15.4709748 4.54709482,13.1900369 L2.3566473,3.68071329 C2.13046948,2.70102955 2.74130673,1.7234856 3.72099048,1.49730779 C4.70067423,1.27112997 5.67821817,1.88196722 5.90439599,2.86165097 L8.08277876,12.2991876 C8.60651351,14.5681947 9.22906905,16.8132522 9.94866681,19.0279464 Z" id="Combined-Shape" fill="#30404D" fill-rule="nonzero" transform="translate(8.951736, 19.980128) rotate(-6.000000) translate(-8.951736, -19.980128) "></path><path d="M13.1208025,46.6517424 C11.5171489,46.6517424 10.2050686,45.3396621 10.2050686,43.7360085 L10.2050686,10.2050686 C10.2050686,8.601415 11.5171489,7.28933474 13.1208025,7.28933474 L53.9410771,7.28933474 C55.5447307,7.28933474 56.856811,8.601415 56.856811,10.2050686 L56.856811,43.7360085 C56.856811,45.3396621 55.5447307,46.6517424 53.9410771,46.6517424 L13.1208025,46.6517424" id="Fill-1456" fill="#30404D"></path><g id="Fill-1457"><use fill="#E1E4E1" xlink:href="#path-3"></use><use fill-opacity="0.1" fill="url(#linearGradient-2)" xlink:href="#path-3"></use></g><g id="linux" transform="translate(23.683509, 16.991550)" fill-rule="nonzero"><path d="M9.07526772,4.66909067 C10.0648983,4.42757715 11.9077258,6.17189826 12.9426717,8.12293856 C13.9153327,10.1537317 14.5732827,12.3344548 14.8917225,14.5829133 C15.1051436,16.181917 15.5314984,19.6900031 14.4960652,20.4943659 C13.460632,21.2987287 11.0082388,21.7464497 9.37152344,21.7781739 C7.73480804,21.8098981 5.63373129,21.7147254 4.90283725,19.5400805 C4.1719432,17.3654355 3.95900941,15.6379999 4.2333383,14.1991524 C4.5076672,12.760305 5.84715235,10.2018991 6.33441505,9.46610162 C6.82167775,8.7303041 6.83580836,8.81831326 7.01658282,7.57902147 C7.19735729,6.33972968 7.95651257,4.94181673 9.07526772,4.66909067 Z" id="Shape" fill="#FFFFFF"></path><path d="M6.77295148,22.732971 C8.16213742,22.0314561 11.099357,22.1051382 13.1039557,22.732971 C15.1085544,23.3608038 14.0180605,16.7053668 13.2710868,18.5320686 C12.630532,20.1582956 11.1305183,21.2288662 9.45484536,21.2557474 C6.23891156,21.2557474 5.22540515,18.8365189 5.22540515,18.8365189 L6.77295148,22.732971 Z" id="Shape" fill="#020204"></path><path d="M13.3758483,23.2932618 C14.2266089,23.8893704 15.1787202,23.2687012 15.6732919,22.7641835 C16.1830521,22.214221 16.7728599,21.7528924 17.4206159,21.3974831 C18.0053474,21.1750019 18.5372786,20.8222186 18.9798565,20.3633755 C19.1674527,20.0307827 19.1435768,19.6470218 18.6514415,19.3538285 C18.1387841,19.1076907 17.732883,18.6682996 17.5141704,18.1227236 C17.4084343,17.6299747 17.502476,17.1745784 17.1389781,16.8788267 C16.7754801,16.583075 15.0544683,16.5692596 14.5598966,16.5467456 C14.065325,16.5242317 13.3285838,16.3497484 13.117599,16.5467456 C12.9066143,16.7437429 13.0240446,17.5071712 13.0357389,17.9282848 C13.0215551,18.7681756 12.9628302,19.6065847 12.8598371,20.439616 C12.7774897,20.9170145 12.1445354,22.4315908 13.3758483,23.2932618 Z" id="Shape" fill="#F5BD0C"></path><path d="M6.72422521,7.88551849 L6.72422521,3.4072849 C6.72422488,1.52629242 8.1757311,0.00112989487 9.96695845,0 C11.758947,1.36339252e-15 13.2116407,1.52549341 13.2116407,3.4072849 L13.2116407,6.48197705 C13.2116407,7.59027846 14.5657438,9.04908147 15.4447657,10.0637452 C16.3941755,11.2771988 16.992299,12.7511062 17.1682138,14.3106989 C17.2914913,15.7142404 17.0751467,17.3296178 15.9373883,17.8745583 C14.9350889,18.3550269 13.9556909,17.8034346 14.0049044,16.4930191 C14.0214713,16.0596252 14.1963987,13.667004 13.6336102,11.9492903 C12.9801833,10.2426769 12.2361011,8.57590062 11.4048707,6.95681717 C11.4048707,6.95681717 7.37277186,6.07672556 7.37277186,7.12925373 C7.48909766,8.16890979 7.26000677,9.21885687 6.72422521,10.1016096 C5.9679935,11.5235716 4.50815447,14.053835 4.70159776,16.1036297 C5.31116339,17.0558684 6.37242154,17.7317992 6.81193249,18.0991863 C7.25144344,18.4665734 7.58570565,19.1506911 7.32209654,19.556966 C7.05848742,19.9632408 5.81158218,19.6859096 5.440288,19.556966 C5.06899383,19.4280223 3.3621126,16.9161794 3.15210238,16.5099046 C2.91251398,15.9534433 2.90615074,15.3169708 3.13456092,14.7553499 C3.38111585,14.0349028 3.99652863,13.0934094 4.27767921,12.206666 C4.60382432,11.2673912 5.06010107,10.3837622 5.63178224,9.58429997 C6.21211211,8.73490923 6.58145724,8.66122714 6.72422521,7.88551849 Z" id="Shape" fill="#020204"></path><ellipse id="Oval" fill="#FFFFFF" cx="10.5443647" cy="4.83231696" rx="1.06125815" ry="1.59439852"></ellipse><path d="M8.70251175,4.75454142 C8.76147054,5.49494407 8.41405224,6.12942872 7.92581502,6.17240994 C7.43757779,6.21539116 7.08382508,5.64333161 7.02486629,4.90292896 C6.9659075,4.16252631 7.22415673,3.53469351 7.71190669,3.4917123 C8.19965665,3.44873108 8.6430657,4.01413877 8.70251175,4.75454142 Z" id="Shape" fill="#FFFFFF"></path><ellipse id="Oval" fill="#020204" transform="translate(10.541010, 4.941764) rotate(-87.895000) translate(-10.541010, -4.941764) " cx="10.5399571" cy="4.94173993" rx="1" ry="1"></ellipse><ellipse id="Oval" fill="#020204" transform="translate(7.904953, 4.973161) rotate(-9.083000) translate(-7.904953, -4.973161) " cx="7.86200547" cy="4.97327592" rx="1" ry="1"></ellipse><path d="M9.0728314,5.12141682 C9.70627291,5.12141682 10.2627269,5.65407692 10.5999127,5.7523197 C10.9370985,5.85056248 11.4175395,5.89712547 11.6051356,6.26400087 C11.7927318,6.63087627 11.5564094,7.10111126 11.0423472,7.3717906 C10.5282851,7.64246994 9.90507609,8.40640992 8.97927697,8.40640992 C8.05347784,8.40640992 7.71239396,7.52017814 7.37131007,7.23670677 C7.22224637,7.15322735 7.11629097,7.0044174 7.08220052,6.83066444 C7.04811007,6.65691149 7.08942085,6.47623931 7.19492097,6.33768296 C7.39908404,5.97387765 8.38091837,5.12141682 9.0728314,5.12141682 Z" id="Shape" fill="#F5BD0C"></path><path d="M7.19687002,22.8133049 C7.78158526,21.8129682 7.39616047,20.8924538 6.75151192,20.1172568 C6.04274044,19.1020268 5.38909402,18.0456017 4.7936904,16.9530205 C4.47696965,16.4479912 4.04330585,15.9925949 3.60964205,16.066277 C3.17597825,16.1399591 2.87095181,16.9653008 2.58931397,17.2114195 C2.30767613,17.4575381 1.22936378,17.2359802 0.901435988,17.605414 C0.573508193,17.9748478 0.878047379,19.2939618 0.819088592,19.9202596 C0.760129806,20.5465573 0.443896316,20.8801735 0.408813402,21.1759252 C0.373730488,21.4716769 0.467284926,21.803758 0.993528638,22.0007552 C1.51977235,22.1977525 3.49074996,22.7171089 4.17096868,22.8747067 C4.8511874,23.0323045 6.44697273,24.0935312 7.19687002,22.8133049 Z" id="Shape" fill="#F5BD0C"></path></g><path d="M13.1208025,10.5695354 C13.1208025,9.96524953 13.6106458,9.47613517 14.2142028,9.47613517 C14.8184886,9.47613517 15.307603,9.96524953 15.307603,10.5695354 C15.307603,11.1730923 14.8184886,11.6629356 14.2142028,11.6629356 C13.6106458,11.6629356 13.1208025,11.1730923 13.1208025,10.5695354" id="Fill-1458" fill="#DF5142"></path><path d="M17.4944034,10.5695354 C17.4944034,9.96524953 17.9842467,9.47613517 18.5878036,9.47613517 C19.1920894,9.47613517 19.6812038,9.96524953 19.6812038,10.5695354 C19.6812038,11.1730923 19.1920894,11.6629356 18.5878036,11.6629356 C17.9842467,11.6629356 17.4944034,11.1730923 17.4944034,10.5695354" id="Fill-1459" fill="#EFB252"></path><path d="M21.8680042,10.5695354 C21.8680042,9.96524953 22.3578475,9.47613517 22.9614044,9.47613517 C23.5656903,9.47613517 24.0548047,9.96524953 24.0548047,10.5695354 C24.0548047,11.1730923 23.5656903,11.6629356 22.9614044,11.6629356 C22.3578475,11.6629356 21.8680042,11.1730923 21.8680042,10.5695354" id="Fill-1460" fill="#7CB65A"></path><path d="M53.5766104,11.6629356 L28.7928722,11.6629356 C28.1885864,11.6629356 27.699472,11.1730923 27.699472,10.5695354 C27.699472,9.96597846 28.1885864,9.47613517 28.7928722,9.47613517 L53.5766104,9.47613517 C54.1808962,9.47613517 54.6700106,9.96597846 54.6700106,10.5695354 C54.6700106,11.1730923 54.1808962,11.6629356 53.5766104,11.6629356" id="Fill-1461" fill="#697D85"></path></g><g id="Azure-Border" stroke="#0078D4" stroke-width="4"><rect x="2" y="2" width="96" height="96" rx="48"></rect></g></g></g></g></svg>

<svg xmlns="http://www.w3.org/2000/svg" xmlns:xlink="http://www.w3.org/1999/xlink" viewBox="0 0 100 100"><defs><filter x="-1.5%" y="-1.7%" width="103%" height="106.7%" filterUnits="objectBoundingBox" id="a"><feOffset dy="2" in="SourceAlpha" result="shadowOffsetOuter1"/><feColorMatrix values="0 0 0 0 0 0 0 0 0 0 0 0 0 0 0 0 0 0 0.0972316576 0" in="shadowOffsetOuter1" result="shadowMatrixOuter1"/><feMerge><feMergeNode in="shadowMatrixOuter1"/><feMergeNode in="SourceGraphic"/></feMerge></filter><linearGradient x1="50%" y1="100%" x2="50%" y2="0%" id="c"><stop stop-color="#FFF" stop-opacity=".5" offset="0%"/><stop stop-opacity=".5" offset="100%"/></linearGradient><path d="M13.85 44.465a1.462 1.462 0 0 1-1.458-1.458v-27.7c0-.801.656-1.457 1.458-1.457h39.362c.802 0 1.458.656 1.458 1.458v27.7c0 .8-.656 1.457-1.458 1.457H13.85" id="b"/></defs><g fill="none" fill-rule="evenodd"><rect fill="#55A2FF" x="2" y="2" width="96" height="96" rx="48"/><ellipse fill="#000" opacity=".1" cx="50" cy="85.648" rx="18.312" ry="4.022"/><g fill="#FFF" fill-opacity=".649" stroke="#FFF"><path d="M63.6 21.493l4.362-8.209.87.462-4.368 8.219c-.285-.162-.573-.32-.865-.472zm15.7 25.152l9.807-.343.035.984-9.83.343c.002-.327-.002-.655-.011-.984zm-58.095-4.48l-9.767-2.253.22-.959 9.74 2.248c-.07.32-.134.641-.193.964zm37.038-27.771l-.958-.22 1.01-4.364.958.22-1.01 4.364zm24.803 24.278l-.287-.94 4.664-1.425.287.94-4.664 1.425zM19.74 32.8l-4.822-2.563.462-.87 4.822 2.563-.462.87zm20.686-13.865l-2.494-8.159.94-.287 2.494 8.159-.94.287zM16.358 47.382c-.85 0-1.615.513-1.942 1.3a2.111 2.111 0 0 0 .456 2.296 2.101 2.101 0 0 0 3.588-1.489c0-1.164-.94-2.107-2.102-2.107h0zm0 3.16a1.054 1.054 0 1 1 .403-2.026 1.054 1.054 0 0 1-.402 2.026h0zM50.15 14.397a2.629 2.629 0 0 0-2.428 1.626 2.637 2.637 0 0 0 .568 2.87c.752.752 1.883.979 2.864.571a2.633 2.633 0 0 0-1.006-5.067h.002zm0 4.213a1.577 1.577 0 0 1-1.457-.975 1.576 1.576 0 1 1 2.059-2.063c.59.245.975.82.975 1.459a1.582 1.582 0 0 1-1.579 1.58h.002zm28.831 41.208a3.161 3.161 0 0 0-2.23 5.394 3.149 3.149 0 0 0 3.437.685 3.16 3.16 0 0 0-1.207-6.08zm0 5.266a2.107 2.107 0 0 1-1.486-3.596 2.097 2.097 0 0 1 2.29-.456 2.108 2.108 0 0 1-.804 4.052h0z"/></g><g filter="url(#a)" transform="rotate(8 -82.695 158.02)"><path d="M35.039 58.512c-.165.12-.344.208-.528.265a1.82 1.82 0 0 1-2.669-.702l-6.073-12.45a1.82 1.82 0 1 1 3.273-1.597l4.746 9.731a.8.8 0 0 0 1.19.297l9.128-6.633a1.82 1.82 0 0 1 2.543.403c.12.12.224.25.309.399l.914 1.582a1.82 1.82 0 1 1-3.154 1.82l-.06-.104-9.62 6.989z" fill="#30404D" fill-rule="nonzero"/><path d="M45.34 57.972c-.045.024-.09.045-.136.065-.944.461-2.034.086-2.475-.818l-6.073-12.451a1.82 1.82 0 1 1 3.273-1.596l4.886 10.018a.8.8 0 0 0 1.095.355l9.952-5.292a1.82 1.82 0 0 1 2.462.753c.14.136.258.28.353.446l.914 1.582a1.82 1.82 0 1 1-3.153 1.82l-.347-.599-10.752 5.717zM55.173 29.786c-1.064.798-1.889 1.035-2.475.71a1.82 1.82 0 0 1-.71-2.475l3.745-6.743a48 48 0 0 0 4.61-11.69l1.77-7.098a1.82 1.82 0 1 1 3.532.88l-2.133 8.22a48 48 0 0 1-4.455 11.17zM9.844 18.929l7.312 16.424a1.82 1.82 0 1 1-3.326 1.481L6.432 20.219a80 80 0 0 1-2.57-6.531L.688 4.459a1.82 1.82 0 1 1 3.443-1.185l3.153 9.158a80 80 0 0 0 2.559 6.497z" fill="#30404D" fill-rule="nonzero"/><path d="M13.12 46.652a2.924 2.924 0 0 1-2.915-2.916v-33.53a2.924 2.924 0 0 1 2.916-2.917h40.82a2.924 2.924 0 0 1 2.916 2.916v33.531a2.924 2.924 0 0 1-2.916 2.916h-40.82" fill="#30404D"/><use fill="#E1E4E1" xlink:href="#b"/><use fill-opacity=".1" fill="url(#c)" xlink:href="#b"/><g transform="translate(23.684 16.992)" fill-rule="nonzero"><path d="M9.075 4.67c.99-.242 2.833 1.502 3.868 3.453a22.15 22.15 0 0 1 1.949 6.46c.213 1.599.64 5.107-.396 5.911-1.035.805-3.488 1.252-5.124 1.284-1.637.032-3.738-.063-4.47-2.238-.73-2.175-.943-3.902-.669-5.34.275-1.44 1.614-3.998 2.101-4.734.488-.736.502-.648.683-1.887.18-1.24.94-2.637 2.058-2.91z" fill="#FFF"/><path d="M6.773 22.733c1.39-.702 4.326-.628 6.331 0 2.005.628.914-6.028.167-4.2-.64 1.625-2.14 2.696-3.816 2.723-3.216 0-4.23-2.42-4.23-2.42l1.548 3.897z" fill="#020204"/><path d="M13.376 23.293c.85.596 1.803-.024 2.297-.529a6.93 6.93 0 0 1 1.748-1.367 4.286 4.286 0 0 0 1.559-1.034c.187-.332.164-.716-.329-1.01a2.313 2.313 0 0 1-1.137-1.23c-.106-.493-.012-.948-.375-1.244-.364-.296-2.085-.31-2.58-.332-.494-.023-1.23-.197-1.441 0-.211.197-.094.96-.082 1.381-.014.84-.073 1.679-.176 2.512-.083.477-.715 1.992.516 2.853z" fill="#F5BD0C"/><path d="M6.724 7.886V3.407C6.724 1.527 8.176.001 9.967 0c1.792 0 3.245 1.525 3.245 3.407v3.075c0 1.108 1.354 2.567 2.233 3.582a8.427 8.427 0 0 1 1.723 4.247c.123 1.403-.093 3.019-1.23 3.564-1.003.48-1.982-.072-1.933-1.382.016-.433.191-2.826-.371-4.544a50.35 50.35 0 0 0-2.23-4.992s-4.031-.88-4.031.172a4.727 4.727 0 0 1-.649 2.973c-.756 1.422-2.216 3.952-2.022 6.002.61.952 1.67 1.628 2.11 1.995.44.368.774 1.052.51 1.458-.264.406-1.51.129-1.882 0-.371-.129-2.078-2.64-2.288-3.047a2.28 2.28 0 0 1-.017-1.755c.246-.72.862-1.662 1.143-2.548.326-.94.782-1.823 1.354-2.623.58-.85.95-.923 1.092-1.698z" fill="#020204"/><ellipse fill="#FFF" cx="10.544" cy="4.832" rx="1.061" ry="1.594"/><path d="M8.703 4.755c.058.74-.289 1.374-.777 1.417-.488.043-.842-.529-.901-1.27-.06-.74.2-1.367.687-1.41.488-.043.931.522.99 1.263z" fill="#FFF"/><ellipse fill="#020204" transform="rotate(-87.895 10.541 4.942)" cx="10.54" cy="4.942" rx="1" ry="1"/><ellipse fill="#020204" transform="rotate(-9.083 7.905 4.973)" cx="7.862" cy="4.973" rx="1" ry="1"/><path d="M9.073 5.121c.633 0 1.19.533 1.527.631.337.099.818.145 1.005.512.188.367-.049.837-.563 1.108-.514.27-1.137 1.034-2.063 1.034-.926 0-1.267-.886-1.608-1.17a.595.595 0 0 1-.289-.405.62.62 0 0 1 .113-.493C7.399 5.974 8.38 5.12 9.073 5.12zM7.197 22.813c.585-1 .2-1.92-.445-2.696a33.687 33.687 0 0 1-1.958-3.164c-.317-.505-.75-.96-1.184-.887-.434.074-.739.9-1.02 1.145-.282.247-1.36.025-1.689.394-.327.37-.023 1.689-.082 2.315-.059.627-.375.96-.41 1.256-.035.296.058.628.585.825.526.197 2.497.716 3.177.874.68.157 2.276 1.219 3.026-.062z" fill="#F5BD0C"/></g><path d="M13.12 10.57a1.093 1.093 0 1 1 2.187 0 1.093 1.093 0 0 1-2.186 0" fill="#DF5142"/><path d="M17.494 10.57a1.093 1.093 0 1 1 2.187 0 1.093 1.093 0 0 1-2.187 0" fill="#EFB252"/><path d="M21.868 10.57a1.093 1.093 0 1 1 2.187 0 1.093 1.093 0 0 1-2.187 0" fill="#7CB65A"/><path d="M53.577 11.663H28.793a1.093 1.093 0 1 1 0-2.187h24.784a1.093 1.093 0 1 1 0 2.187" fill="#697D85"/></g><rect x="2" y="2" width="96" height="96" rx="48" stroke="#0078D4" stroke-width="4"/></g></svg>
